X:1
T:[ID 5-41]
T:[ID 5-41]
T:Bezeichnung standardisiert: Anglaise Angeloise In dieser Quelle auch als: Tantz \"Ahnlich in dieser Quelle: ID 5-16;
T:Urheber unbekannt Erstbeleg: 1773 (Datum in der schriftlichen Quelle) Datum in der hier transkribierten schriftlichen Quelle: 1792
C:Urheber unbekannt
C:Erstbeleg: 1773 (Datum in der schriftlichen Quelle)
C:Datum in der hier transkribierten schriftlichen Quelle: 1792
L:1/8
M:2/4
K:G
V:1 treble 
V:1
 GBAc | Bd d2 | BA/G/ FG | A/G/F/E/ D2 | GBAc | Bg g2 | ad f/e/d/^c/ | d2 D2 :: BdBd | gb b2 | %10
 AcAc | fa a2 | GBAc | Bdgb | a/g/f/e/ d/c/B/A/ | G2 G,2 :| %16

